X:110
T:Hills of Glen Orchy (Wild hills of Whannies)
R:Pipe march
R:Jig
R:Waltz
O:Scotland
O:England
M:6/8
K:EDor
d/c/|\
B2E E>FE|B>AB d2B|A2D D>ED|F>DF Adc|\
BEF G>FE|B>AB e3|
d>Bd AFD|E3 E2::\
A|\
e>fe edB|e>fg gfe|
d>cd dAF|dcd f>ed|\
e>fe edB|e>fg f>ef|d>Bd AFD|E3 E2:|
